X:1
T:Somebody loves me
T:Somebody loves me
T:George Gershwin
C:George Gershwin
%%score 1 2 3
L:1/8
M:4/4
K:Bb
V:1 treble nm="Flute" snm="Fl."
V:2 treble transpose=-2 nm="B♭ Clarinet" snm="B♭ Cl."
V:3 treble transpose=-2 nm="B♭ Clarinet" snm="B♭ Cl."
V:1
 z2 F2 G2 A2 | B4 c4 | z2 d2 d2 B2 | _d8 | z2 d2 d2 B2 | _d4 B c2 B- | B8- | B4 z4 | z2 D2 D2 D2 | %9
 E4 E4 | z2 F2 F2 D2 | =E8 | z2 D2 D2 F2 | ^G4 =G G2 A- | A8 | z2 e2 f2 g2 | e2 c2 d2 c2 | %17
 e2 c2 d2 c2 | e8 | g8 | d2 B2 c2 B2 | d2 B2 c2 B2 | c4- c>d c2 | f8 | z2 D2 D2 D2 | E4 E4 | %26
 z2 F2 F2 D2 | F8 | f8 | B4 c4 | f8 | B4 c4 | f8 | B4 c4 | B8- | B4- B z z2 | z2 F2 G2 A2 | B4 c4 | %38
 z2 d2 d2 B2 | _d8 | z2 d2 d2 B2 | _d4 B c2 B- | B8- | B4 z4 | z2 D2 D2 D2 | E4 E4 | z2 F2 F2 D2 | %47
 =E8 | z2 D2 D2 F2 | ^G4 =G G2 A- | A8 | z2 e2 f2 g2 | e2 c2 d2 c2 | e2 c2 d2 c2 | e8 | g8 | %56
 d2 B2 c2 B2 | d2 B2 c2 B2 | c4- c>d c2 | f8 | z2 D2 D2 D2 | E4 E4 | z2 F2 F2 D2 | F8 | f8 | %65
 B4 c4 | !^!B2 z2 z4 |] %67
V:2
[K:C] z2 E2 E2 E2 | F4 E4 | z2 G2 G2 E2 | A8 | z2 G2 G2 E2 | G4 F F2 E- | E8- | E4 z4 | %8
 z2 G2 A2 B2 | c4 d4 | z2 e2 e2 c2 | e8 | z2 g2 g2 e2 | g4 e ^f2 g- | g8 | z2 z2 z4 | A4 _B4 | %17
 =B4 _B4 | z2 A2 =B2 ^c2 | e2 d2 ^c2 d2 | c2 A2 B2 A2 | c2 A2 B2 A2 | c8 | B8 | z2 D2 C2 B,2 | %25
 A,4 _A,4 | z2 C2 C2 C2 | F,8 | E8 | A4 _A4 | E8 | A4 _A4 | E8 | A4 _A4 | G8- | G4- G z z2 | %36
 z2 E2 E2 E2 | F4 E4 | z2 G2 G2 E2 | A8 | z2 G2 G2 E2 | G4 F F2 E- | E8- | E4 z4 | z2 G2 A2 B2 | %45
 c4 d4 | z2 e2 e2 c2 | e8 | z2 g2 g2 e2 | g4 e ^f2 g- | g8 | z2 z2 z4 | A4 _B4 | =B4 _B4 | %54
 z2 A2 =B2 ^c2 | e2 d2 ^c2 d2 | c2 A2 B2 A2 | c2 A2 B2 A2 | c8 | B8 | z2 D2 C2 B,2 | A,4 _A,4 | %62
 z2 C2 C2 C2 | F,8 | E8 | A4 _A4 | !^!G2 z2 z4 |] %67
V:3
[K:C] z2 D2 C2 B,2 | A,4 _A,4 | z2 C2 C2 C2 | F,8 | z2 C2 C2 C2 | F,4 G, G,2 C- | C2 B,2 A,2 G,2 | %7
 F,2 G,2 A,A, B,2 | C2 D2 C2 B,2 | A,4 _A,4 | z2 C2 C2 C2 | A,8 | z2 B,2 B,2 B,2 | ^C4 C ^D2 E- | %14
 E8 | z2 F2 G2 A2 | F2 D2 E2 D2 | F2 D2 E2 D2 | F8 | A8 | G2 G2 ^F2 F2 | =F8 | F8 | F8 | %24
 z2 G2 A2 B2 | c4 d4 | z2 e2 e2 c2 | _e8 | C8 | F4 F4 | C8 | F4 F4 | C8 | F4 F4 | C2 B,2 A,2 G,2 | %35
 F,2 G,2 A,A, B,2 | C2 D2 C2 B,2 | A,4 _A,4 | z2 C2 C2 C2 | F,8 | z2 C2 C2 C2 | F,4 G, G,2 C- | %42
 C2 B,2 A,2 G,2 | F,2 G,2 A,A, B,2 | C2 D2 C2 B,2 | A,4 _A,4 | z2 C2 C2 C2 | A,8 | z2 B,2 B,2 B,2 | %49
 ^C4 C ^D2 E- | E8 | z2 F2 G2 A2 | F2 D2 E2 D2 | F2 D2 E2 D2 | F8 | A8 | G2 G2 ^F2 F2 | =F8 | F8 | %59
 F8 | z2 G2 A2 B2 | c4 d4 | z2 e2 e2 c2 | _e8 | C8 | F4 F4 | !^!E2 z2 z4 |] %67

